X:371
T:Je suis marchand de noix
R:Branle double
C:trad.
S:apprise de Jean-Loup Baly - se trouve aussi dans le livre des chansons  danser de l'ADP
N:Chanson  dcompter - Se danse en rondeau galement
O:France
M:2/4
L:1/8
Q:1/4=100
K:C
e|edc2|d2d>e|edc2|d2d>e|edc2|d2d>e|edc2|d2d2|
|:e>def|edc2|d>c de|d2c2:||
W:
W:Je suis marchand de noix
W:C'est moi qui vend des noix (bis)
W:
W:Six sous la douzaine, o gu
W:Six sous la douzaine (bis)
